X: 11
T:Tomorrow Morning
M:C|
L:1/8
C:from G. Cotter
R:Hornpipe
K:D
fe | dAFA dfed | ecAc egfe | fafd Bgfe | c2A2 Affe |
dAFA dfed | ecAc egfe | fafd Bgec | d2dcd2 :|
|: fg | afdf a2gf | gece g2fe | fafd Bged | c2A2 | A2fe |
dAFA dfed | ecAc egfe | fafd Bgfc | d2dc | d2:|
